X: 26002
T: Mayor Harrison's Fedora
R: reel
M: 4/4
K: Edorian
F|:GBEG B2 AF|GFGA B2 AG|FADF ADFA|dcdB ADFA|
GBEG B2 AF|GFGA BABc|dcdB ADFA|GE E2 E3F:|
|:(3Bcd ed e3f|gefd edBd|FABc d2 (3ABc|dfaf gfed|
(3Bcd ed e3f|gefd edBc|dcdB ADFA|GE E2 E3F:|

